X:9450
T:Leary's, Johnny
M:2/4
L:1/8
K:D Major
d3/B/|AF F/G/F/E/|DF FD/F/|AF AF|E2 E3/B/|!
AF F/G/F/E/|DF FD/F/|AF/A/ Bc|d2 c3/B/:|!
AF F/G/F/E/|DF FD/F/|AF AF|E2 E3/F/|!
GE E/F/E/D/|CE E3/A|FA Bc|d2|]!
dA|dA/d/ fe|cB/c/ ec|BA B3/c|BA FA|!
dA/d/ fe|cB/c/ ec|BA Bc|d2:|!


